X:178
M:C|
L:1/8
K:D Minor
c|A<ddf c>fAa|f>cAF G/G/G A2|1 A>ddf c>fAd|BG G/G/G FD D:|2
a>gfd cBAd|BG G/G/G FDD||D<GGB cBAc|B<GGB cAFA|1

